X: 1708
T: the First of May   #2
R: hornpipe, reel
%S: s:2 b:13(6+7)
B: O'Neill's 1850 #1708
O: F.O'Neill
Z: "Transcribed by Bob Safranek, rjs@gsp.org"
M: 2/4
L: 1/16
K: A	% DMoI has A dorian
(AG) \
|: EAAB cBcA | dcde f2(ef) | gedc \
[1,3 dfed | cAGF G2G2 :|\
[2,4 dfec | A2AA A2 :: (fg) \
|  a2af g2ge |
|  fgfd e2(ed) |\
|  cdef gfed | cAGF G2G2 \
|| EAAB cBcA | dcde f2(ef) \
|  gedc dfec | A2AA A2 :|
